X: 13883
T: Fox On The Prowl, The
R: reel
M: 4/4
K: Dmajor
A|d2 fd eA~A2|BAFA BAFA|AFde faaf|g2 fg|egfe|
deed eA~A2|BAFA BAFA|AFde fbaf|edef d3:|
e|faaf dcde|faaf eA~A2|BAFA defab|faf e3 A|
bF~F2 afef|deed edBA|FA~A2 FAdf|edef d3:|

